data/playwrite-pe.svg

<svg width="99.274" height="27.048" viewBox="0 0 99.274 27.048" xmlns="http://www.w3.org/2000/svg"><path transform="translate(0 19.992) scale(.014 -.014)" d="m418 378q-20 0-29 10t-9 32q0 20 9 30t27 11q78 2 140.5 24t107 61.5 67.5 95 23 124.5q0 82-40.5 124t-110.5 42q-45 0-86.5-21.5t-75.5-62-59-95.5-39-122-14-141v-476q0-14-10.5-21t-32.5-7-33 7-11 21v791q-18-32-41-60.5t-51-54-64-51.5q-14-9-27.5-6t-26.5 21q-11 17-9 30t17 23q53 36 92 79t65.5 93.5 41.5 109.5q4 16 14.5 21t32.5 5q21 0 32-6.5t11-20.5v-179q31 66 74 112t95.5 70 110.5 24q71 0 124-29.5t82.5-85 29.5-133.5q0-85-31-155t-88-121.5-135.5-80.5-172.5-32z"/><path transform="translate(12.236 19.992) scale(.014 -.014)" d="m-79-17q-19 0-28 11.5t-9 26 9 26 28 11.5q28 0 57 15t58 42.5 57 66 53.5 85.5 48.5 101 41.5 113 32 121 20.5 125 7 125q0 15 13 22.5t30 7.5 30-7.5 13-22.5q0-59-8.5-122.5t-24.5-129-38.5-130-50-125-59-115.5-65.5-100-70-78-72.5-51-72.5-18zm298 0q-25 0-43 7t-29.5 20.5-17.5 33.5-6 46v718q0 108 34 159.5t102 51.5q41 0 68-19t41-56.5 14-91.5q0-19-13-28t-30-9-30 9-13 28q0 30-4 49t-13 28.5-23 9.5q-16 0-27-13.5t-15.5-44.5-4.5-83v-697q0-15 3-24t9-13 14-4 15 4 14 12 15 20q6 8 15.5 7t19.5-8q11-7 14-16.5t-1-18.5q-12-24-28.5-41t-36.5-26.5-43-9.5z"/><path transform="translate(17.752 19.992) scale(.014 -.014)" d="m242-17q-53 0-93.5 28t-63 83-22.5 135q0 52 9.5 97t28.5 80.5 46 60.5 62.5 38.5 78.5 13.5q33 0 64.5-8.5t61.5-25.5v4q0 13 11 19.5t32 6.5q22 0 33-6.5t11-19.5v-388q0-15 3-24t8.5-13 14.5-4 15 3.5 13 11.5 15 21q6 7 15 7.5t20-6.5q11-8 15-18t-1-20q-10-21-26.5-38t-36.5-27.5-44-10.5-41.5 6.5-29.5 19-18.5 30-7.5 39.5q0 9-0.5 20t-0.5 22q-21-47-48.5-77.5t-59-45-64.5-14.5zm-91 249q0-51 11-89t34-59 60-21q33 0 63 24t54.5 70 40.5 111v142q-31 18-59 24.5t-56 6.5q-27 0-50-8.5t-41.5-25.5-31-42-19-58.5-6.5-74.5z"/><path transform="translate(26.46 19.992) scale(.014 -.014)" d="m516 9q16 13 31.5 25.5t30.5 23.5 27.5 19.5 21.5 14.5q15 9 26.5 4.5t17-17 3-26.5-15.5-23q-14-10-30.5-22.5t-34.5-27-36-29.5-35-28zm-165-528q-64 0-102.5 36t-38.5 98q0 33 9 65t28.5 65.5 49.5 68 71 71.5q15 13 29.5 26.5t30 27.5 31.5 27v166q-16-39-37-67.5t-45.5-46-50-26.5-51.5-9q-47 0-82 17.5t-54.5 55.5-19.5 100v229q0 30-8 43.5t-26 13.5q-13 0-23.5-7.5t-19-23-15.5-38.5q-6-16-16.5-21t-26.5-2q-15 4-22.5 12.5t-3.5 28.5q11 38 28 66.5t42.5 44 61.5 15.5q31 0 53-9.5t36-27.5 20-44.5 6-60.5v-214q0-34 8.5-56.5t27-33.5 46.5-11q32 0 59 17.5t48.5 49.5 37.5 75 26 94v193q0 13 10.5 19.5t32.5 6.5 33-6.5 11-19.5v-749q0-61-13.5-109.5t-39-81.5-61.5-50.5-80-17.5zm7 77q32 0 54.5 21t34.5 62 12 103v126q-11-8-20.5-16t-18-16-17.5-16q-27-27-46-52t-32-49.5-19.5-48.5-6.5-48q0-21 6.5-35.5t20-22.5 32.5-8z"/><path transform="translate(35.77 19.992) scale(.014 -.014)" d="m270-18q-36 0-62.5 12t-44 35.5-26.5 56.5-9 75v224q0 30-8 43.5t-26 13.5q-12 0-23-7.5t-19.5-23-15.5-38.5q-6-16-16.5-21t-26.5-2q-15 4-22 12.5t-3 28.5q10 38 27 66.5t43 44 61 15.5q31 0 53.5-9.5t36-27.5 20-44.5 6.5-60.5v-189q0-36 3.5-60.5t12-38.5 22-20.5 32.5-6.5q24 0 48.5 17.5t44 48.5 31 72 11.5 89l40-23q-6-57-21.5-108t-40-90-57-61.5-71.5-22.5zm311-1q-40 0-70 13t-50 38.5-30.5 64.5-10.5 92v300q0 13 10.5 19.5t32.5 6.5 33-6.5 11-19.5v-291q0-36 3.5-62t13-42.5 25.5-24.5 40-8q20 0 37.5 8t32.5 23.5 26.5 37 20 47.5 12.5 56.5 4 63.5q0 63-7 101.5t-19 56-30 17.5q-15 0-21.5-8.5t-6.5-19.5q0-14 10.5-24.5t32.5-16 56-5.5q43 0 76.5 15t68.5 40q10 7 19.5 1.5t16-17.5 7.5-24-8-18q-43-31-84-47t-98-16q-54 0-91 13.5t-55.5 39.5-18.5 62q0 27 12 47.5t33.5 32 49.5 11.5q49 0 81-31.5t47.5-85.5 15.5-123q0-42-6.5-82t-19.5-75-32.5-64.5-44.5-50.5-56.5-33-68.5-12z"/><path transform="translate(48.202 19.992) scale(.014 -.014)" d="m-82-17q-19 0-28 11.5t-9.5 26 8.5 26 28 11.5q33 0 61.5 22.5t52 69.5 44.5 119 39 170l59-13q-18-118-42-202.5t-54.5-137.5-69.5-78-89-25zm533 0q-26 0-44 7.5t-29.5 21.5-17.5 34-6 45q0 27 2.5 63.5t5 76 5 76.5 2.5 64q0 35-8.5 46.5t-31.5 11.5q-26 0-59.5-10t-65.5-19.5-52-9.5q-18 0-34 19t-26.5 47-10.5 55q0 18 6 32.5t18.5 23 31.5 8.5q30 0 40.5-20t10.5-47q0-10-1-19.5t-4-19.5q11 0 38.5 11t62.5 22 67 11q35 0 58-13t34.5-42.5 11.5-80.5q0-27-2.5-65t-5-78-5-75.5-2.5-57.5 6-31.5 19-9.5q9 0 16.5 4t15 12 14.5 20q6 7 15.5 6.5t19.5-7.5q11-7 14-16.5t-1-18.5q-12-24-28.5-41t-36.5-26.5-43-9.5z"/><path transform="translate(56.154 19.992) scale(.014 -.014)" d="m191-17q-49 0-73 27.5t-24 79.5v399q0 13 10.5 19.5t31.5 6.5q22 0 33-6.5t11-19.5v-388q0-23 7-32t20-9q9 0 15.5 4t13 12 14.5 20q5 7 14.5 6.5t19.5-7.5q11-6 14.5-15.5t-1.5-18.5q-12-24-28-41.5t-36-27-42-9.5zm-56 686q-28 0-42.5 15.5t-14.5 46.5q0 32 14.5 48t42.5 16q27 0 41-16t14-48q1-31-13.5-46.5t-41.5-15.5z"/><path transform="translate(60.354 19.992) scale(.014 -.014)" d="m236-17q-39 0-65.5 15.5t-39.5 45-13 71.5v305h-78q-15 0-21 9t-6 31q0 23 6 31.5t21 8.5h78v204q0 13 10.5 19.5t31.5 6.5q22 0 33-6.5t11-19.5v-204h127q15 0 21.5-8.5t6.5-31.5q0-22-6.5-31t-21.5-9h-127v-296q0-35 9.5-49.5t31.5-14.5q21 0 38 13t35 40q9 10 18.5 9.5t21.5-7.5q13-8 16.5-18.5t-1.5-20.5q-16-33-37-53.5t-46.5-30-53.5-9.5z"/><path transform="translate(65.772 19.992) scale(.014 -.014)" d="m294-18q-47 0-85.5 19t-68.5 52-50 75-30.5 87.5-10.5 89.5q0 36 8 68t23 59 36.5 46.5 49 30 59.5 10.5q48 0 79.5-19.5t47-51.5 15.5-70q0-36-14-73.5t-37.5-74.5-55.5-72q-45-50-102-90t-118-62.5-120-22.5q-14 0-21 11.5t-5.5 26 12.5 26 33 11.5q42 0 88.5 18.5t90.5 50 78 68.5q26 28 44 58t28 59.5 10 56.5q0 41-15.5 56t-44.5 15q-15 0-29.5-7.5t-26-23.5-18.5-41-7-59q0-47 13-91t36.5-79 54-56 64.5-21q26 0 47.5 10.5t41 28 38.5 39.5q12 16 25 15t27-12 17-22-6-25q-26-41-60-66t-70-36.5-71-11.5z"/><path transform="translate(76.188 19.992) scale(.014 -.014)" d="m418 378q-20 0-29 10t-9 32q0 20 9 30t27 11q78 2 140.5 24t107 61.5 67.5 95 23 124.5q0 82-40.5 124t-110.5 42q-45 0-86.5-21.5t-75.5-62-59-95.5-39-122-14-141v-476q0-14-10.5-21t-32.5-7-33 7-11 21v791q-18-32-41-60.5t-51-54-64-51.5q-14-9-27.5-6t-26.5 21q-11 17-9 30t17 23q53 36 92 79t65.5 93.5 41.5 109.5q4 16 14.5 21t32.5 5q21 0 32-6.5t11-20.5v-179q31 66 74 112t95.5 70 110.5 24q71 0 124-29.5t82.5-85 29.5-133.5q0-85-31-155t-88-121.5-135.5-80.5-172.5-32z"/><path transform="translate(88.424 19.992) scale(.014 -.014)" d="m406-19q-97 0-168.5 32.5t-110.5 94.5-39 149q0 50 15 94t43.5 79.5 68 60 88.5 35.5q-54 16-93 49t-59.5 79-20.5 98q0 48 14 88.5t40 72.5 62 55 81 35 96 12q52 0 99-12t88-35 72-57q19-19 19-34t-18-30q-14-11-26.5-8.5t-29.5 16.5q-24 23-55.5 39t-69.5 25-82 9q-46 0-83.5-12t-63-34-39-55-13.5-74q0-54 24-96.5t68-67.5 103-25h139q15 0 21.5-8.5t6.5-31.5q0-22-6.5-31t-21.5-9h-135q-53 0-97-16t-76-46-49.5-71-17.5-90q0-62 27-105t78.5-65.5 120.5-22.5q49 0 93 14.5t83 43.5 71 73q14 19 26 21.5t27-7.5q19-12 21-26.5t-12-34.5q-36-54-84-92.5t-105-58.5-120-20z"/></svg>

<?xml version="1.0" encoding="utf-8" ?>
<svg baseProfile="tiny" height="100%" version="1.2" width="100%" xmlns="http://www.w3.org/2000/svg" xmlns:ev="http://www.w3.org/2001/xml-events" xmlns:xlink="http://www.w3.org/1999/xlink"><defs /><g><path d="M418 378Q398 378 389.0 388.0Q380 398 380 420Q380 440 389.0 450.0Q398 460 416 461Q494 463 556.5 485.0Q619 507 663.5 546.5Q708 586 731.0 641.5Q754 697 754 766Q754 848 713.5 890.0Q673 932 603 932Q558 932 516.5 910.5Q475 889 441.0 848.5Q407 808 382.0 753.0Q357 698 343.0 631.0Q329 564 329 490V14Q329 0 318.5 -7.0Q308 -14 286 -14Q264 -14 253.0 -7.0Q242 0 242 14V805Q224 773 201.0 744.5Q178 716 150.0 690.5Q122 665 86 639Q72 630 58.5 633.0Q45 636 32 654Q21 671 23.0 684.0Q25 697 40 707Q93 743 132.0 786.0Q171 829 197.5 879.5Q224 930 239 989Q243 1005 253.5 1010.0Q264 1015 286 1015Q307 1015 318.0 1008.5Q329 1002 329 988V809Q360 875 403.0 921.0Q446 967 498.5 991.0Q551 1015 609 1015Q680 1015 733.0 985.5Q786 956 815.5 900.5Q845 845 845 767Q845 682 814.0 612.0Q783 542 726.0 490.5Q669 439 590.5 410.0Q512 381 418 378Z" transform="translate(0.0, 72) scale(0.072, -0.072)" /><path d="M-79 -17Q-98 -17 -107.0 -5.5Q-116 6 -116.0 20.5Q-116 35 -107.0 46.5Q-98 58 -79 58Q-51 58 -22.0 73.0Q7 88 36.0 115.5Q65 143 93.0 181.5Q121 220 146.5 267.0Q172 314 195.0 368.0Q218 422 236.5 481.0Q255 540 268.5 602.0Q282 664 289.0 727.0Q296 790 296 852Q296 867 309.0 874.5Q322 882 339.0 882.0Q356 882 369.0 874.5Q382 867 382 852Q382 793 373.5 729.5Q365 666 349.0 600.5Q333 535 310.5 470.5Q288 406 260.5 345.5Q233 285 201.5 230.0Q170 175 136.0 130.0Q102 85 66.0 52.0Q30 19 -6.5 1.0Q-43 -17 -79 -17ZM219 -17Q194 -17 176.0 -10.0Q158 -3 146.5 10.5Q135 24 129.0 44.0Q123 64 123 90V808Q123 916 157.0 967.5Q191 1019 259 1019Q300 1019 327.0 1000.0Q354 981 368.0 943.5Q382 906 382 852Q382 833 369.0 824.0Q356 815 339.0 815.0Q322 815 309.0 824.0Q296 833 296 852Q296 882 292.0 901.0Q288 920 279.0 929.5Q270 939 256 939Q240 939 229.0 925.5Q218 912 213.5 881.0Q209 850 209 798V101Q209 86 212.0 77.0Q215 68 221.0 64.0Q227 60 235 60Q243 60 250.0 64.0Q257 68 264.0 76.0Q271 84 279 96Q285 104 294.5 103.0Q304 102 314 95Q325 88 328.0 78.5Q331 69 327 60Q315 36 298.5 19.0Q282 2 262.0 -7.5Q242 -17 219 -17Z" transform="translate(62.928, 72) scale(0.072, -0.072)" /><path d="M242 -17Q189 -17 148.5 11.0Q108 39 85.5 94.0Q63 149 63 229Q63 281 72.5 326.0Q82 371 101.0 406.5Q120 442 147.0 467.0Q174 492 209.5 505.5Q245 519 288 519Q321 519 352.5 510.5Q384 502 414 485V489Q414 502 425.0 508.5Q436 515 457 515Q479 515 490.0 508.5Q501 502 501 489V101Q501 86 504.0 77.0Q507 68 512.5 64.0Q518 60 527 60Q536 60 542.0 63.5Q548 67 555.0 75.0Q562 83 570 96Q576 103 585.0 103.5Q594 104 605 97Q616 89 620.0 79.0Q624 69 619 59Q609 38 592.5 21.0Q576 4 556.0 -6.5Q536 -17 512 -17Q488 -17 470.5 -10.5Q453 -4 441.0 8.5Q429 21 422.5 38.5Q416 56 415 78Q415 87 414.5 98.0Q414 109 414 120Q393 73 365.5 42.5Q338 12 306.5 -2.5Q275 -17 242 -17ZM151 232Q151 181 162.0 143.0Q173 105 196.0 84.0Q219 63 256 63Q289 63 319.0 87.0Q349 111 373.5 157.0Q398 203 414 268V410Q383 428 355.0 434.5Q327 441 299 441Q272 441 249.0 432.5Q226 424 207.5 407.0Q189 390 176.5 365.0Q164 340 157.5 306.5Q151 273 151 232Z" transform="translate(91.29599999999999, 72) scale(0.072, -0.072)" /><path d="M516 9Q532 22 547.5 34.5Q563 47 578.0 58.0Q593 69 605.5 77.5Q618 86 627 92Q642 101 653.5 96.5Q665 92 670.5 79.5Q676 67 673.5 53.0Q671 39 658 30Q644 20 627.5 7.5Q611 -5 593.0 -19.5Q575 -34 557.0 -49.0Q539 -64 522 -77ZM351 -519Q287 -519 248.5 -483.0Q210 -447 210 -385Q210 -352 219.0 -320.0Q228 -288 247.5 -254.5Q267 -221 297.0 -186.5Q327 -152 368 -115Q383 -102 397.5 -88.5Q412 -75 427.5 -61.0Q443 -47 459 -34V132Q443 93 422.0 64.5Q401 36 376.5 18.5Q352 1 326.5 -8.0Q301 -17 275 -17Q228 -17 193.0 0.5Q158 18 138.5 56.0Q119 94 119 156V385Q119 415 111.0 428.5Q103 442 85 442Q72 442 61.5 434.5Q51 427 42.5 411.5Q34 396 27 373Q21 357 10.5 352.0Q0 347 -16 350Q-31 354 -38.5 362.5Q-46 371 -42 391Q-31 429 -14.0 457.5Q3 486 28.5 501.5Q54 517 90 517Q121 517 143.0 507.5Q165 498 179.0 480.0Q193 462 199.0 435.5Q205 409 205 375V161Q205 127 213.5 104.5Q222 82 240.5 71.0Q259 60 287 60Q319 60 346.0 77.5Q373 95 394.5 127.0Q416 159 432.0 202.0Q448 245 458 296V489Q458 502 468.5 508.5Q479 515 501 515Q523 515 534.0 508.5Q545 502 545 489V-260Q545 -321 531.5 -369.5Q518 -418 492.5 -451.0Q467 -484 431.0 -501.5Q395 -519 351 -519ZM358 -442Q390 -442 412.5 -421.0Q435 -400 447.0 -359.0Q459 -318 459 -256V-130Q448 -138 438.5 -146.0Q429 -154 420.5 -162.0Q412 -170 403 -178Q376 -205 357.0 -230.0Q338 -255 325.0 -279.5Q312 -304 305.5 -328.0Q299 -352 299 -376Q299 -397 305.5 -411.5Q312 -426 325.5 -434.0Q339 -442 358 -442Z" transform="translate(136.07999999999998, 72) scale(0.072, -0.072)" /><path d="M270 -18Q234 -18 207.5 -6.0Q181 6 163.5 29.5Q146 53 137.0 86.0Q128 119 128 161V385Q128 415 120.0 428.5Q112 442 94 442Q82 442 71.0 434.5Q60 427 51.5 411.5Q43 396 36 373Q30 357 19.5 352.0Q9 347 -7 350Q-22 354 -29.0 362.5Q-36 371 -32 391Q-22 429 -5.0 457.5Q12 486 38.0 501.5Q64 517 99 517Q130 517 152.5 507.5Q175 498 188.5 480.0Q202 462 208.5 435.5Q215 409 215 375V186Q215 150 218.5 125.5Q222 101 230.5 87.0Q239 73 252.5 66.5Q266 60 285 60Q309 60 333.5 77.5Q358 95 377.5 126.0Q397 157 408.5 198.0Q420 239 420 287L460 264Q454 207 438.5 156.0Q423 105 398.5 66.0Q374 27 341.5 4.5Q309 -18 270 -18ZM581 -19Q541 -19 511.0 -6.0Q481 7 461.0 32.5Q441 58 430.5 97.0Q420 136 420 189V489Q420 502 430.5 508.5Q441 515 463 515Q485 515 496.0 508.5Q507 502 507 489V198Q507 162 510.5 136.0Q514 110 523.5 93.5Q533 77 549.0 69.0Q565 61 589 61Q609 61 626.5 69.0Q644 77 659.0 92.5Q674 108 685.5 129.5Q697 151 705.5 177.0Q714 203 718.0 233.5Q722 264 722 297Q722 360 715.0 398.5Q708 437 696.0 454.5Q684 472 666 472Q651 472 644.5 463.5Q638 455 638 444Q638 430 648.5 419.5Q659 409 681.0 403.5Q703 398 737 398Q780 398 813.5 413.0Q847 428 882 453Q892 460 901.5 454.5Q911 449 917.5 437.0Q924 425 925.0 413.0Q926 401 917 395Q874 364 833.0 348.0Q792 332 735 332Q681 332 644.0 345.5Q607 359 588.5 385.0Q570 411 570 447Q570 474 582.0 494.5Q594 515 615.5 526.5Q637 538 665 538Q714 538 746.0 506.5Q778 475 793.5 421.0Q809 367 809 298Q809 256 802.5 216.0Q796 176 783.0 141.0Q770 106 750.5 76.5Q731 47 706.0 26.0Q681 5 649.5 -7.0Q618 -19 581 -19Z" transform="translate(183.95999999999998, 72) scale(0.072, -0.072)" /><path d="M-82 -17Q-101 -17 -110.0 -5.5Q-119 6 -119.5 20.5Q-120 35 -111.0 46.5Q-102 58 -83 58Q-50 58 -21.5 80.5Q7 103 30.5 150.0Q54 197 75.0 269.0Q96 341 114 439L173 426Q155 308 131.0 223.5Q107 139 76.5 86.0Q46 33 7.0 8.0Q-32 -17 -82 -17ZM451 -17Q425 -17 407.0 -9.5Q389 -2 377.5 12.0Q366 26 360.0 46.0Q354 66 354 91Q354 118 356.5 154.5Q359 191 361.5 230.5Q364 270 366.5 307.0Q369 344 369 371Q369 406 360.5 417.5Q352 429 329 429Q303 429 269.5 419.0Q236 409 204.0 399.5Q172 390 152 390Q134 390 118.0 409.0Q102 428 91.5 456.0Q81 484 81 511Q81 529 87.0 543.5Q93 558 105.5 566.5Q118 575 137 575Q167 575 177.5 555.0Q188 535 188 508Q188 498 187.0 488.5Q186 479 183 469Q194 469 221.5 480.0Q249 491 284.0 502.0Q319 513 351 513Q386 513 409.0 500.0Q432 487 443.5 457.5Q455 428 455 377Q455 350 452.5 312.0Q450 274 447.5 234.0Q445 194 442.5 158.5Q440 123 440 101Q440 79 446.0 69.5Q452 60 465 60Q474 60 481.5 64.0Q489 68 496.5 76.0Q504 84 511 96Q517 103 526.5 102.5Q536 102 546 95Q557 88 560.0 78.5Q563 69 559 60Q547 36 530.5 19.0Q514 2 494.0 -7.5Q474 -17 451 -17Z" transform="translate(247.89599999999996, 72) scale(0.072, -0.072)" /><path d="M191 -17Q142 -17 118.0 10.5Q94 38 94 90V489Q94 502 104.5 508.5Q115 515 136 515Q158 515 169.0 508.5Q180 502 180 489V101Q180 78 187.0 69.0Q194 60 207 60Q216 60 222.5 64.0Q229 68 235.5 76.0Q242 84 250 96Q255 103 264.5 102.5Q274 102 284 95Q295 89 298.5 79.5Q302 70 297 61Q285 37 269.0 19.5Q253 2 233.0 -7.5Q213 -17 191 -17ZM135 669Q107 669 92.5 684.5Q78 700 78 731Q78 763 92.5 779.0Q107 795 135 795Q162 795 176.0 779.0Q190 763 190 731Q191 700 176.5 684.5Q162 669 135 669Z" transform="translate(288.792, 72) scale(0.072, -0.072)" /><path d="M236 -17Q197 -17 170.5 -1.5Q144 14 131.0 43.5Q118 73 118 115V420H40Q25 420 19.0 429.0Q13 438 13 460Q13 483 19.0 491.5Q25 500 40 500H118V704Q118 717 128.5 723.5Q139 730 160 730Q182 730 193.0 723.5Q204 717 204 704V500H331Q346 500 352.5 491.5Q359 483 359 460Q359 438 352.5 429.0Q346 420 331 420H204V124Q204 89 213.5 74.5Q223 60 245 60Q266 60 283.0 73.0Q300 86 318 113Q327 123 336.5 122.5Q346 122 358 115Q371 107 374.5 96.5Q378 86 373 76Q357 43 336.0 22.5Q315 2 289.5 -7.5Q264 -17 236 -17Z" transform="translate(310.392, 72) scale(0.072, -0.072)" /><path d="M294 -18Q247 -18 208.5 1.0Q170 20 140.0 53.0Q110 86 90.0 128.0Q70 170 59.5 215.5Q49 261 49 305Q49 341 57.0 373.0Q65 405 80.0 432.0Q95 459 116.5 478.5Q138 498 165.5 508.5Q193 519 225 519Q273 519 304.5 499.5Q336 480 351.5 448.0Q367 416 367 378Q367 342 353.0 304.5Q339 267 315.5 230.0Q292 193 260 158Q215 108 158.0 68.0Q101 28 40.0 5.5Q-21 -17 -80 -17Q-94 -17 -101.0 -5.5Q-108 6 -106.5 20.5Q-105 35 -94.0 46.5Q-83 58 -61 58Q-19 58 27.5 76.5Q74 95 118.0 126.5Q162 158 196 195Q222 223 240.0 253.0Q258 283 268.0 312.5Q278 342 278 369Q278 410 262.5 425.0Q247 440 218 440Q203 440 188.5 432.5Q174 425 162.5 409.0Q151 393 144.0 368.0Q137 343 137 309Q137 262 150.0 218.0Q163 174 186.5 139.0Q210 104 240.5 83.0Q271 62 305 62Q331 62 352.5 72.5Q374 83 393.5 100.5Q413 118 432 140Q444 156 457.0 155.0Q470 154 484 143Q498 132 501.0 121.0Q504 110 495 96Q469 55 435.0 30.0Q401 5 365.0 -6.5Q329 -18 294 -18Z" transform="translate(338.256, 72) scale(0.072, -0.072)" /><path d="M418 378Q398 378 389.0 388.0Q380 398 380 420Q380 440 389.0 450.0Q398 460 416 461Q494 463 556.5 485.0Q619 507 663.5 546.5Q708 586 731.0 641.5Q754 697 754 766Q754 848 713.5 890.0Q673 932 603 932Q558 932 516.5 910.5Q475 889 441.0 848.5Q407 808 382.0 753.0Q357 698 343.0 631.0Q329 564 329 490V14Q329 0 318.5 -7.0Q308 -14 286 -14Q264 -14 253.0 -7.0Q242 0 242 14V805Q224 773 201.0 744.5Q178 716 150.0 690.5Q122 665 86 639Q72 630 58.5 633.0Q45 636 32 654Q21 671 23.0 684.0Q25 697 40 707Q93 743 132.0 786.0Q171 829 197.5 879.5Q224 930 239 989Q243 1005 253.5 1010.0Q264 1015 286 1015Q307 1015 318.0 1008.5Q329 1002 329 988V809Q360 875 403.0 921.0Q446 967 498.5 991.0Q551 1015 609 1015Q680 1015 733.0 985.5Q786 956 815.5 900.5Q845 845 845 767Q845 682 814.0 612.0Q783 542 726.0 490.5Q669 439 590.5 410.0Q512 381 418 378Z" transform="translate(391.824, 72) scale(0.072, -0.072)" /><path d="M406 -19Q309 -19 237.5 13.5Q166 46 127.0 108.0Q88 170 88 257Q88 307 103.0 351.0Q118 395 146.5 430.5Q175 466 214.5 490.5Q254 515 303 526Q249 542 210.0 575.0Q171 608 150.5 654.0Q130 700 130 752Q130 800 144.0 840.5Q158 881 184.0 913.0Q210 945 246.0 968.0Q282 991 327.0 1003.0Q372 1015 423 1015Q475 1015 522.0 1003.0Q569 991 610.0 968.0Q651 945 682 911Q701 892 701.0 877.0Q701 862 683 847Q669 836 656.5 838.5Q644 841 627 855Q603 878 571.5 894.0Q540 910 502.0 919.0Q464 928 420 928Q374 928 336.5 916.0Q299 904 273.5 882.0Q248 860 234.5 827.0Q221 794 221 753Q221 699 245.0 656.5Q269 614 313.0 589.0Q357 564 416 564H555Q570 564 576.5 555.5Q583 547 583 524Q583 502 576.5 493.0Q570 484 555 484H420Q367 484 323.0 468.0Q279 452 247.0 422.0Q215 392 197.5 351.0Q180 310 180 261Q180 199 207.0 156.0Q234 113 285.5 90.5Q337 68 406 68Q455 68 499.0 82.5Q543 97 582.0 126.0Q621 155 653 199Q667 218 679.0 220.5Q691 223 706 213Q725 201 727.0 186.5Q729 172 715 152Q679 98 631.0 59.5Q583 21 526.0 1.0Q469 -19 406 -19Z" transform="translate(454.752, 72) scale(0.072, -0.072)" /></g></svg>
